!!!COM: Britten, (Edward) Benjamin
!!!OTL: [T808_Bri-w24p32m8-1h14m1-2]
**kern	**dynam	**kern	**dynam	**kern	**dynam	**kern	**dynam	**kern	**dynam
*grp:A	*grp:A	*grp:A	*grp:A	*grp:B	*grp:B	*grp:B	*grp:B	*grp:B	*grp:B
*part5	*part5	*part4	*part4	*part3	*part3	*part2	*part2	*part1	*part1
*staff5	*	*staff4	*	*staff3	*	*staff2	*	*staff1	*
*I"Double Bass	*	*I"Violoncello	*	*I"Viola	*	*I"Violin II	*	*I"Violin I	*
*I'Db.	*	*I'Vc.	*	*I'Vla.	*	*I'Vln. II	*	*I'Vln. I	*
!!pagebreak:original
*clefF4	*	*clefF4	*	*clefC3	*	*clefG2	*	*clefG2	*
*Trd0c0	*	*	*	*	*	*	*	*	*
*k[f#c#]	*	*k[f#c#]	*	*k[f#c#]	*	*k[f#c#]	*	*k[f#c#]	*
*D:	*	*D:	*	*D:	*	*D:	*	*D:	*
*M4/4	*	*M4/4	*	*M4/4	*	*M4/4	*	*M4/4	*
=1	=1	=1	=1	=1	=1	=1	=1	=1	=1
!	!	!	!	!	!	!	!	!LO:TX:t=[quarter]=52	!
!	!	!	!	!	!	!	!	!LO:TX:a:B:t=Grave come prima	!
1r	.	1r	.	2r	.	2r	.	2r	.
!	!	!	!	!	!LO:DY:t=%s expr. sempre sul G	!	!LO:DY:t=%s expr. sempre sul G	!	!LO:DY:t=%s expr. sempre sul G
.	.	.	.	(4Av	ff	(4Av	ff	(4Av	ff
.	.	.	.	4fn)	.	4fn)	.	4fn)	.
=2	=2	=2	=2	=2	=2	=2	=2	=2	=2
4r	.	4r	.	2.c#	.	2.c#	.	2.c#	.
!LO:TX:a:t=pizz.	!LO:DY:t=%s pesante	!LO:TX:a:t=pizz.	!LO:DY:t=%s pesante	!	!	!	!	!	!
4CCn 4Cn	fff	4CCn	fff	.	.	.	.	.	.
4FFn	.	4FFn	.	.	.	.	.	.	.
8GG#X^L	.	8GG#X^L	.	(4cn	<	(4cn	<	(4cn	<
8AA^J	.	8AA^J	.	.	.	.	.	.	.
=3	=3	=3	=3	=3	=3	=3	=3	=3	=3
8r	.	8r	.	4a)	[	4a)	[	4a)	[
4CCn 4Cn	.	4CCn	.	.	.	.	.	.	.
.	.	.	.	4fn~	.	4fn~	.	4fn~	.
4FFn	.	4FFn	.	.	.	.	.	.	.
.	.	.	.	4c#X~	.	4c#X~	.	4c#X~	.
8GG#X	.	8GG#X	.	.	.	.	.	.	.
4AA	.	4AA	.	(8A#XL	>	(8A#XL	>	(8A#XL	>
.	.	.	.	[8BJ	]	[8BJ	]	[8BJ	]
=4	=4	=4	=4	=4	=4	=4	=4	=4	=4
4r	.	4r	.	2B])	.	2B])	.	2B])	.
4DD 4D	.	4DD	.	.	.	.	.	.	.
4GGn	.	4GG	.	(4Gv	.	(4Gv	.	(4Gv	.
8AA#X^L	.	8AA#X^L	.	[4fn	.	[4fn	.	[4fn	.
8BB^J	.	8BB^J	.	.	.	.	.	.	.
=5	=5	=5	=5	=5	=5	=5	=5	=5	=5
8r	.	8r	.	4f])	.	4f])	.	4f])	.
4DD 4D	.	4DD	.	.	.	.	.	.	.
.	.	.	.	4G~	.	4G~	.	4G~	.
4GG	.	4GG	.	.	.	.	.	.	.
.	.	.	.	4fn~	.	4fn~	.	4fn~	.
4AA#X	.	4AA#X	.	.	.	.	.	.	.
.	.	.	.	4d~	.	4d~	.	4d~	.
8BB^	.	8BB^	.	.	.	.	.	.	.
!!linebreak:original
=6	=6	=6	=6	=6	=6	=6	=6	=6	=6
!	!	!	!	!LO:TX:a:i:t=sul D	!	!LO:TX:a:i:t=sul D	!	!LO:TX:a:i:t=sul D	!
4Cn	.	4Cn	.	(8e-XL	.	(8e-XL	.	(8e-XL	.
.	.	.	.	8g	.	8g	.	8g	.
4r	.	4r	.	8dd-X	.	8dd-X	.	8dd-X	.
.	.	.	.	[8ccnJ	.	[8ccnJ	.	[8ccnJ	.
8E-XL	.	8E-XL	.	4cc])	.	4cc])	.	4cc])	.
8A-X	.	8A-X	.	.	.	.	.	.	.
8Bn	.	8Bn	.	4cc~	.	4cc~	.	4cc~	.
8cnJ	.	8cnJ	.	.	.	.	.	.	.
*	*	*	*	*clefG2	*	*	*	*	*
=7	=7	=7	=7	=7	=7	=7	=7	=7	=7
8r	.	8r	.	4ddn~	.	4ddn~	.	4ddn~	.
4d^	.	4d^	.	.	.	.	.	.	.
.	.	.	.	4ee-X~	.	4ee-X~	.	4ee-X~	.
4e-X^	.	4e-X^	.	.	.	.	.	.	.
.	.	.	.	(4ccn	.	(4ccn	.	(4ccn	.
4cn	.	4cn	.	.	.	.	.	.	.
.	.	.	.	4ggn)	.	4ggn)	.	4ggn)	.
8gn^	.	8gn^	.	.	.	.	.	.	.
=8	=8	=8	=8	=8	=8	=8	=8	=8	=8
8g#X	sf	8g#X	sf	8aa#XL	sf	(8aa#XL	sf	(8aa#XL	sf
8r	.	8r	.	[8bbJ	.	[8bbJ	.	[8bbJ	.
!LO:TX:a:t=arco	!	!LO:TX:a:t=arco	!	!	!	!	!LO:HP:i:t=dim.	!	!LO:HP:i:t=dim.
4r	.	4r	.	8bb]	.	2.bb_	>	2.bb_	>
.	.	.	.	8r	.	.	.	.	.
*	*	*	*	*clefC3	*	*	*	*	*
!	!LO:DY:t=%s sost.	!	!LO:DY:t=%s sost.	!	!LO:DY:t=%s sost.	!	!	!	!
4BB~	mf	4BB~	mf	4B~	mf	.	.	.	.
4En~	.	4E~	.	4e~	.	.	.	.	.
!!LO:REH:t=14
=9||	=9||	=9||	=9||	=9||	=9||	=9||	=9||	=9||	=9||
*k[f#c#g#d#]	*	*k[f#c#g#d#]	*	*k[f#c#g#d#]	*	*k[f#c#g#d#]	*	*k[f#c#g#d#]	*
*E:	*	*E:	*	*E:	*	*E:	*	*E:	*
(8F##X^	.	(8F##X^	.	(8f##X^	.	2bb])	.	2bb])	.
[4.G#	.	[4.G#	.	[4.g#	.	.	.	.	.
!	!	!	!	!	!	!	!LO:DY:t=%s dolce	!	!LO:DY:t=%s dolce
8G#])	.	8G#])	.	8g#])	.	(4gg#	mf	(4gg#	mf
4BB	.	4BB	.	4B	.	.	.	.	.
.	.	.	.	.	.	4eeeo)	.	4eeeo)	.
[8E	.	[8E	.	[8e	.	.	.	.	.
=10	=10	=10	=10	=10	=10	=10	=10	=10	=10
*	*	*	*	*	*	*^	*	*	*
!	!	!	!	!	!	!LO:TX:a:t=div.	!	!	!	!
8E]	.	8E]	.	8e]	.	[2cccn	4ccc	.	2.cccn	.
!	!LO:HP:i:t=dim.	!	!LO:HP:i:t=dim.	!	!LO:HP:i:t=dim.	!	!	!	!	!
(8F##X~	>	(8F##X~	>	(8f##X~	>	.	.	.	.	.
4G#)	.	4G#)	.	4g#)	.	.	4r	.	.	.
4BB	.	4BB	.	4B	.	4ccc]	2r	.	.	.
!	!	!	!	!	!	!LO:TX:b:i:t=dim.	!	!	!	!
4E	.	4E	.	4e	.	[4bb	.	.	[4bb	.
*	*	*	*	*	*	*v	*v	*	*	*
=	=	=	=	=	=	=	=	=	=
*-	*-	*-	*-	*-	*-	*-	*-	*-	*-
!!!system-decoration: [(s1,s2,s3,s4,s5)]
